icon-themes/sifr_svg/cmd/sc_zoomobjects.svg

<svg viewBox="0 0 16 16" xmlns="http://www.w3.org/2000/svg"><path d="m3.1875 2c-.6627 0-1.1875.54899-1.1875 1.21875v9.5625c0 .66976.5248 1.21875 1.1875 1.21875h9.625c.6627 0 1.1875-.54899 1.1875-1.21875v-9.5625c0-.66976-.5248-1.21875-1.1875-1.21875zm.8125 2h3v1h-2v2h-1zm5 0h3v3h-1v-2h-2zm-2.96875 2h3.96875v4h-3.96875zm-2.03125 3h1v2h2v1h-3zm7 0h1v3h-3v-1h2z" fill="#555753"/></svg>

<svg xmlns="http://www.w3.org/2000/svg" viewBox="0 0 16 16">
  <path
     style="fill:#555753"
     d="M 3.1875,2 C 2.5248,2 2,2.54899 2,3.21875 v 9.5625 C 2,13.45101 2.5248,14 3.1875,14 h 9.625 C 13.4752,14 14,13.45101 14,12.78125 V 3.21875 C 14,2.54899 13.4752,2 12.8125,2 Z M 4,4 H 7 V 5 H 5 V 7 H 4 Z m 5,0 h 3 V 7 H 11 V 5 H 9 Z M 6.03125,6 H 10 v 4 H 6.03125 Z M 4,9 h 1 v 2 h 2 v 1 H 4 Z m 7,0 h 1 v 3 H 9 v -1 h 2 z"
     />
</svg>
